X: 63
M:6/8
L:1/8
K:G
dcB AFA|GBd gdB|cBc AFA|BGG G2:|
|:c|def gfg|eag fed|cBc AFA|GBd gec|
def gfg|eag fed|cBc AFA|BGG G2:||

